X: 2017
T: GORDON CASTLE
R: Strathspey.
%R: strathspey
B: James Kerr "Merry Melodies" v.2 p.5 #17
Z: 2016 John Chambers <jc:trillian.mit.edu>
M: C
L: 1/16
K: A
uf2 |\
ve3vAuc3uA BBB2 f4 | ve3vAuc3uA ve3uAec3 |\
d3fe3c BBB2 f4 | e3cA3c e6 :|\
uf2 |\
ve3vcua3c BBB2 f4 | veuc3 va3uc e3c ef3 |
e3c a3c BBB2 f4 | e3cA3c e6 f2 |\
e3ca3c BBB2 f4 | e3ca3c e3fa3b |\
agfe a3c BBB2 f4 | e3cA3c e6 |]

%%sep 1 1 500
%%sep 1 1 500

